public/icon.svg

<?xml version="1.0" encoding="UTF-8" standalone="no"?>
<!-- Created with Inkscape (http://www.inkscape.org/) -->

<svg
   width="16"
   height="16"
   viewBox="0 0 4.2333332 4.2333335"
   version="1.1"
   id="svg5"
   inkscape:version="1.1.2 (b8e25be833, 2022-02-05)"
   sodipodi:docname="jck .svg"
   xmlns:inkscape="http://www.inkscape.org/namespaces/inkscape"
   xmlns:sodipodi="http://sodipodi.sourceforge.net/DTD/sodipodi-0.dtd"
   xmlns="http://www.w3.org/2000/svg"
   xmlns:svg="http://www.w3.org/2000/svg">
  <sodipodi:namedview
     id="namedview7"
     pagecolor="#505050"
     bordercolor="#ffffff"
     borderopacity="1"
     inkscape:pageshadow="0"
     inkscape:pageopacity="0"
     inkscape:pagecheckerboard="1"
     inkscape:document-units="mm"
     showgrid="false"
     units="px"
     inkscape:zoom="32"
     inkscape:cx="9.015625"
     inkscape:cy="8.28125"
     inkscape:window-width="1536"
     inkscape:window-height="801"
     inkscape:window-x="-8"
     inkscape:window-y="-8"
     inkscape:window-maximized="1"
     inkscape:current-layer="layer2" />
  <defs
     id="defs2" />
  <g
     inkscape:label="Layer 1"
     inkscape:groupmode="layer"
     id="layer1"
     style="display:inline">
    <path
       id="rect3401"
       style="opacity:1;vector-effect:none;fill:#1096e1;fill-opacity:1;fill-rule:evenodd;stroke-width:0.1;stroke-linejoin:round;paint-order:stroke fill markers;stop-color:#000000;stop-opacity:1"
       d="M 0.43717305,2.2496818 1.0058241,2.8038585 v 1.021541 H 0.43717305 Z"
       sodipodi:nodetypes="ccccc" />
    <path
       id="rect3401-0"
       style="vector-effect:none;fill:#1096e1;fill-opacity:1;fill-rule:evenodd;stroke-width:0.1;stroke-linejoin:round;paint-order:stroke fill markers;stop-color:#000000"
       d="M 1.0058241,2.3929288 0.43717305,1.8708907 V 0.81721096 L 1.0058241,1.3838231 Z"
       sodipodi:nodetypes="ccccc" />
    <path
       id="rect4558"
       style="opacity:1;vector-effect:none;fill:#1096e1;fill-opacity:1;fill-rule:evenodd;stroke-width:0.1;stroke-linejoin:round;paint-order:stroke fill markers;stop-color:#000000;stop-opacity:1"
       d="M 1.1927487,0.40524288 2.0348795,1.2434081 2.0347012,2.0401599 0.38817041,0.40524288 Z"
       sodipodi:nodetypes="ccccc" />
    <path
       id="rect3401-4"
       style="display:inline;vector-effect:none;fill:#1096e1;fill-opacity:1;fill-rule:evenodd;stroke-width:0.1;stroke-linejoin:round;paint-order:stroke fill markers;stop-color:#000000"
       d="M 3.8017621,2.2496818 3.2331112,2.8038585 v 1.021541 h 0.5686509 z"
       sodipodi:nodetypes="ccccc" />
    <path
       id="rect3401-0-3"
       style="display:inline;vector-effect:none;fill:#1096e1;fill-opacity:1;fill-rule:evenodd;stroke-width:0.1;stroke-linejoin:round;paint-order:stroke fill markers;stop-color:#000000"
       d="M 3.2331112,2.3929288 3.8017621,1.8708907 V 0.81721096 L 3.2331112,1.3838231 Z"
       sodipodi:nodetypes="ccccc" />
    <path
       id="rect4558-7"
       style="display:inline;vector-effect:none;fill:#1096e1;fill-opacity:1;fill-rule:evenodd;stroke-width:0.1;stroke-linejoin:round;paint-order:stroke fill markers;stop-color:#000000"
       d="M 3.0464337,0.4053044 2.1988669,1.2421162 2.1990458,2.0388681 3.8510118,0.4053044 Z"
       sodipodi:nodetypes="ccccc" />
  </g>
  <g
     inkscape:groupmode="layer"
     id="layer2"
     inkscape:label="pravitko"
     style="display:none">
    <path
       id="rect3401-7"
       style="display:inline;vector-effect:none;fill:#1096e1;fill-opacity:1;fill-rule:evenodd;stroke-width:0.1;stroke-linejoin:round;paint-order:stroke fill markers;stop-color:#000000"
       d="m 0.46302083,2.3213053 0.51695552,0.503797 V 3.753776 H 0.46302083 Z"
       sodipodi:nodetypes="ccccc" />
    <path
       id="rect3401-0-9"
       style="display:inline;vector-effect:none;fill:#1096e1;fill-opacity:1;fill-rule:evenodd;stroke-width:0.1;stroke-linejoin:round;paint-order:stroke fill markers;stop-color:#000000"
       d="M 0.97997635,2.3213053 0.46302083,1.8467252 V 0.8888345 l 0.51695552,0.5151019 z"
       sodipodi:nodetypes="ccccc" />
    <path
       id="rect4558-4"
       style="display:inline;vector-effect:none;fill:#1096e1;fill-opacity:1;fill-rule:evenodd;stroke-width:0.1;stroke-linejoin:round;paint-order:stroke fill markers;stop-color:#000000"
       d="M 1.1944556,0.47955729 1.9600291,1.2415257 1.959867,1.9658455 0.46302083,0.47955729 Z"
       sodipodi:nodetypes="ccccc" />
    <path
       id="rect3401-4-2"
       style="display:inline;vector-effect:none;fill:#1096e1;fill-opacity:1;fill-rule:evenodd;stroke-width:0.1;stroke-linejoin:round;paint-order:stroke fill markers;stop-color:#000000"
       d="M 3.7759143,2.3213053 3.258959,2.8251023 V 3.753776 h 0.5169553 z"
       sodipodi:nodetypes="ccccc" />
    <path
       id="rect3401-0-3-8"
       style="display:inline;vector-effect:none;fill:#1096e1;fill-opacity:1;fill-rule:evenodd;stroke-width:0.1;stroke-linejoin:round;paint-order:stroke fill markers;stop-color:#000000"
       d="M 3.258959,2.3213053 3.7759143,1.8467252 V 0.8888345 L 3.258959,1.4039364 Z"
       sodipodi:nodetypes="ccccc" />
    <path
       id="rect4558-7-2"
       style="display:inline;vector-effect:none;fill:#1096e1;fill-opacity:1;fill-rule:evenodd;stroke-width:0.1;stroke-linejoin:round;paint-order:stroke fill markers;stop-color:#000000"
       d="M 3.0444797,0.47955729 2.2739644,1.2402953 2.274127,1.9646152 3.7759143,0.47955729 Z"
       sodipodi:nodetypes="ccccc" />
  </g>
</svg>

<svg xmlns="http://www.w3.org/2000/svg" width="16" height="16" viewBox="0 0 4.233 4.233" fill="#1096e1" fill-rule="evenodd" xmlns:v="https://vecta.io/nano"><path d="M.437 2.25l.569.554v1.022H.437zm.569.143l-.569-.522V.817l.569.567zM1.193.405l.842.838v.797L.388.405zM3.802 2.25l-.569.554v1.022h.569zm-.569.143l.569-.522V.817l-.569.567zM3.046.405l-.848.837v.797L3.851.405z" paint-order="stroke fill markers"/></svg>
